X:1
T:Sheffield Park
M:5/4
L:1/4
K:C
G/2-F/2| E E G- F D| C C C- E C| D D D- E F| A A G2 F| E G c- B G|\
 c B A- G C| E E G- F D| C C C3|

